packages/sources/icons/src/vitamix/focus-fill.svg

<svg width="16" height="16" viewBox="0 0 16 16" xmlns="http://www.w3.org/2000/svg"><path fill-rule="evenodd" clip-rule="evenodd" d="M8.66729 2.708L8.66663 0.666668H7.33329V2.708C4.91647 3.01324 3.0132 4.91651 2.70796 7.33333H0.666626V8.66667L2.70796 8.66733C3.01348 11.0839 4.91669 12.9868 7.33329 13.292V15.3333H8.66663L8.66729 13.292C11.0836 12.9865 12.9865 11.0837 13.292 8.66733L15.3333 8.66667V7.33333H13.292C12.9868 4.91673 11.0839 3.01352 8.66729 2.708ZM6.66663 8C6.66663 7.26362 7.26358 6.66667 7.99996 6.66667C8.73634 6.66667 9.33329 7.26362 9.33329 8C9.33329 8.73638 8.73634 9.33333 7.99996 9.33333C7.26358 9.33333 6.66663 8.73638 6.66663 8Z"/></svg>

<svg width="16" height="16" xmlns="http://www.w3.org/2000/svg"><path fill-rule="evenodd" clip-rule="evenodd" d="M8.667 2.708V.667H7.333v2.041a5.336 5.336 0 0 0-4.625 4.625H.667v1.334h2.041a5.336 5.336 0 0 0 4.625 4.625v2.041h1.334v-2.041a5.336 5.336 0 0 0 4.625-4.625h2.041V7.333h-2.041a5.336 5.336 0 0 0-4.625-4.625ZM6.667 8a1.333 1.333 0 1 1 2.666 0 1.333 1.333 0 0 1-2.666 0Z"/></svg>
